public/blackarrow.svg

<svg fill="none" height="75" viewBox="0 0 75 75" width="75" xmlns="http://www.w3.org/2000/svg"><circle cx="37.5" cy="37.5" fill="#000" r="37.5"/><path d="m53.2141 22.114c-.0159-1.3806-1.1479-2.487-2.5285-2.4711l-22.4986.2586c-1.3806.0159-2.4869 1.1479-2.4711 2.5286.0159 1.3806 1.148 2.4869 2.5286 2.4711l19.9987-.2299.2299 19.9987c.0158 1.3806 1.1479 2.4869 2.5285 2.4711 1.3806-.0159 2.487-1.148 2.4711-2.5286zm-31.4261 33.2046 30.7143-31.4286-3.576-3.4946-30.7143 31.4286z" fill="#d1d5db"/></svg>

<svg width="75" height="75" viewBox="0 0 75 75" fill="none" xmlns="http://www.w3.org/2000/svg">
<circle cx="37.5" cy="37.5" r="37.5" fill="black"/>
<path d="M53.2141 22.114C53.1982 20.7334 52.0662 19.627 50.6856 19.6429L28.187 19.9015C26.8064 19.9174 25.7001 21.0494 25.7159 22.4301C25.7318 23.8107 26.8639 24.917 28.2445 24.9012L48.2432 24.6713L48.4731 44.67C48.4889 46.0506 49.621 47.1569 51.0016 47.1411C52.3822 47.1252 53.4886 45.9931 53.4727 44.6125L53.2141 22.114ZM21.788 55.3186L52.5023 23.89L48.9263 20.3954L18.212 51.824L21.788 55.3186Z" fill="#D1D5DB"/>
</svg>
